X:2660
T:Careáu Llaniscu (MG 69)
R:Careáu
C:Versión del Gaiteru Armando Fernández
S:Música Tradicional Asturiana, (C) Tello & Tito. Asturies, 2001.
S:http://pagina.de/MusTradAst <telloytito@asturies.org>
O:Llanes
A:Asturies
Z:Métodu de Gaita 69
E:Comp.
M:2/4
L:1/8
Q:1/4=100
K:C
~G|: CG CD|{EGEF}E2 EE|{A}GF ~ED|C3 ~G :|
|CG CD|{EGEF}E2 EE|{A}GF ~ED|{EGEF}E2 EE|{A}GF ~ED|{A}GF ~ED|{A}GF ~ED|C3 E|
"1"
|~GE CE|~GE CE|
|: ~GE ~GE|F~D B,D|FD FD|~E>D CE|
|~GE ~GE|F~D B,D|~GF ~ED|[1 C2 EE :|[2 C2 GG| "fin"
|c2 Bc|~A2 FG|AB cB|G/A/G/F/ ~EG|
|c2 ~dc|~A2 FG|AB cB|G/A/G/F/ ~GG|
"ir a 1 dos veces hasta fin"


